src/assets/logo-facebook.svg

<svg width="237" height="46" viewBox="0 0 237 46" fill="none" xmlns="http://www.w3.org/2000/svg">
<g clip-path="url(#clip0_351_14161)">
<path d="M15.4574 45.0478H6.57082V22.8945H0.51709V15.6819H6.57059V10.5496C6.57059 4.46779 9.24806 0.105957 18.1106 0.105957C19.9851 0.105957 22.9279 0.48377 22.9279 0.48377V7.1811H19.837C16.6876 7.1811 15.4579 8.13908 15.4579 10.7875V15.6819H22.8099L22.1553 22.8945H15.4577L15.4574 45.0478ZM35.848 15.1055C35.7185 15.1055 35.5853 15.1102 35.4535 15.1135C27.2133 15.1135 23.4432 21.3118 23.4432 30.1105C23.4432 41.1944 28.3335 45.6305 35.5179 45.6305C39.6283 45.6305 42.3289 43.9004 43.9703 40.6718V45.0508H52.4227V15.685H43.9703V20.201C42.63 17.2955 39.854 15.1399 35.848 15.1055ZM37.9972 22.0446C41.4581 22.0446 43.5354 24.4586 43.5354 28.5648L43.5434 32.7587C43.5434 35.5263 41.8277 38.7641 37.9972 38.7641C32.1083 38.7641 32.2656 32.4054 32.2656 30.2876C32.2656 23.1636 35.4032 22.0446 37.9972 22.0446ZM55.8363 30.3694C55.8363 26.801 55.6655 15.1246 70.878 15.1246C76.9846 15.1246 79.5345 17.0663 79.5345 17.0663L77.485 23.4228C77.485 23.4228 74.9385 22.0205 71.6202 22.0205C67.3702 22.0205 64.6583 24.4843 64.6583 28.8193L64.663 31.9276C64.663 36.093 67.2796 38.8735 71.6289 38.8735C74.6519 38.8735 77.4381 37.458 77.4381 37.458L79.4824 43.6818C79.4824 43.6818 77.1509 45.6357 70.9207 45.6357C56.436 45.6357 55.8365 35.1598 55.8365 30.3694H55.8363ZM129.094 15.1135C137.335 15.1135 141.164 21.3118 141.164 30.1105C141.164 41.1944 136.274 45.6305 129.089 45.6305C124.979 45.6305 121.94 43.9007 120.299 40.6718V45.0508L111.953 45.0475V0.998841L120.814 0.225999V19.8032C122.093 16.3781 126.296 15.1135 129.094 15.1135ZM126.61 22.0446C123.149 22.0446 120.814 24.4586 120.814 28.5648L120.806 32.7587C120.801 35.5263 122.423 38.7641 126.61 38.7641C132.499 38.7641 132.341 32.4054 132.341 30.2876C132.341 23.1636 129.204 22.0446 126.61 22.0446ZM94.9097 15.1378C85.5634 15.1378 80.6292 20.2336 80.6292 29.2893V30.9718C80.6292 42.7252 87.5584 45.7513 95.8193 45.7513C103.849 45.7513 107.483 43.5054 107.483 43.5054L105.825 37.5245C105.825 37.5245 101.55 39.3435 96.8818 39.3435C92.0424 39.3435 89.9611 38.1101 89.4277 33.4594H108.192V28.6613C108.192 18.8381 102.654 15.1376 94.9095 15.1376L94.9097 15.1378ZM95.1349 21.1267C98.3702 21.1267 100.467 23.1106 100.351 27.7115H89.4439C89.6331 22.8691 91.8938 21.1267 95.1349 21.1267ZM158.833 15.0975C149.236 15.0975 144.183 20.5062 144.183 30.1989C144.183 43.4978 152.893 45.6385 158.849 45.6385C167.57 45.6385 173.371 40.9437 173.371 30.3197C173.371 19.2619 166.848 15.0975 158.833 15.0975ZM158.713 22.0686C162.933 22.0686 164.605 25.2272 164.605 28.8226V31.9137C164.605 36.2692 162.265 38.7884 158.697 38.7884C155.359 38.7884 153.013 36.4319 153.013 31.9137V28.8226C153.013 24.0039 155.805 22.0686 158.713 22.0686ZM191.025 15.0975C181.427 15.0975 176.374 20.5062 176.374 30.1989C176.374 43.4978 185.084 45.6385 191.041 45.6385C199.761 45.6385 205.563 40.9437 205.563 30.3197C205.563 19.2619 199.039 15.0975 191.025 15.0975ZM190.904 22.0686C195.124 22.0686 196.797 25.2272 196.797 28.8226V31.9137C196.797 36.2692 194.457 38.7884 190.888 38.7884C187.551 38.7884 185.205 36.4319 185.205 31.9137V28.8226C185.205 24.0039 187.996 22.0686 190.904 22.0686ZM208.912 45.0478V0.998841L217.799 0.225999V29.7504L226.616 15.6819H236.001L226.803 30.2527L236.355 45.0478H226.943L217.799 30.6819V45.0478H208.912Z" fill="#1877F2"/>
</g>
<defs>
<clipPath id="clip0_351_14161">
<rect width="237" height="46" fill="white"/>
</clipPath>
</defs>
</svg>

<svg width="237" height="46" fill="none" xmlns="http://www.w3.org/2000/svg"><g clip-path="url(#a)"><path d="M15.457 45.048H6.571V22.894H.517v-7.212h6.054V10.55C6.57 4.468 9.248.106 18.11.106c1.874 0 4.817.378 4.817.378V7.18h-3.091c-3.15 0-4.38.958-4.38 3.606v4.895h7.353l-.655 7.213h-6.697v22.153Zm20.391-29.943c-.13 0-.263.005-.395.008-8.24 0-12.01 6.199-12.01 14.997 0 11.084 4.89 15.52 12.075 15.52 4.11 0 6.81-1.73 8.452-4.958v4.379h8.453V15.685H43.97v4.516c-1.34-2.905-4.116-5.061-8.122-5.096Zm2.15 6.94c3.46 0 5.537 2.414 5.537 6.52l.008 4.194c0 2.767-1.715 6.005-5.546 6.005-5.889 0-5.731-6.359-5.731-8.476 0-7.124 3.137-8.243 5.731-8.243Zm17.838 8.324c0-3.568-.17-15.244 15.042-15.244 6.107 0 8.656 1.941 8.656 1.941l-2.049 6.357s-2.546-1.402-5.865-1.402c-4.25 0-6.962 2.463-6.962 6.798l.005 3.109c0 4.165 2.617 6.945 6.966 6.945 3.023 0 5.81-1.415 5.81-1.415l2.043 6.224s-2.331 1.954-8.561 1.954c-14.485 0-15.085-10.476-15.085-15.267Zm73.258-15.255c8.241 0 12.07 6.198 12.07 14.996 0 11.084-4.89 15.52-12.075 15.52-4.11 0-7.149-1.73-8.79-4.958v4.379l-8.346-.004V1l8.861-.773v19.577c1.279-3.425 5.482-4.69 8.28-4.69Zm-2.484 6.93c-3.461 0-5.796 2.415-5.796 6.52l-.008 4.195c-.005 2.767 1.617 6.005 5.804 6.005 5.889 0 5.731-6.359 5.731-8.476 0-7.124-3.137-8.243-5.731-8.243Zm-31.7-6.906c-9.347 0-14.28 5.096-14.28 14.151v1.683c0 11.753 6.928 14.78 15.19 14.78 8.029 0 11.663-2.247 11.663-2.247l-1.658-5.98s-4.275 1.819-8.943 1.819c-4.84 0-6.92-1.234-7.454-5.885h18.764v-4.798c0-9.823-5.538-13.523-13.282-13.523Zm.225 5.989c3.235 0 5.332 1.984 5.216 6.585H89.444c.19-4.843 2.45-6.585 5.69-6.585Zm63.698-6.03c-9.597 0-14.65 5.41-14.65 15.102 0 13.299 8.71 15.44 14.666 15.44 8.721 0 14.522-4.695 14.522-15.32 0-11.057-6.523-15.221-14.538-15.221Zm-.12 6.972c4.22 0 5.892 3.158 5.892 6.754v3.09c0 4.356-2.34 6.875-5.908 6.875-3.338 0-5.684-2.356-5.684-6.874v-3.091c0-4.82 2.792-6.754 5.7-6.754Zm32.312-6.971c-9.598 0-14.651 5.408-14.651 15.1 0 13.3 8.71 15.44 14.667 15.44 8.72 0 14.522-4.694 14.522-15.318 0-11.058-6.524-15.223-14.538-15.223Zm-.121 6.97c4.22 0 5.893 3.16 5.893 6.755v3.09c0 4.356-2.34 6.875-5.909 6.875-3.337 0-5.683-2.356-5.683-6.874v-3.091c0-4.82 2.791-6.754 5.699-6.754Zm18.008 22.98V.998l8.887-.772V29.75l8.817-14.068h9.385l-9.198 14.57 9.552 14.796h-9.412l-9.144-14.366v14.366h-8.887Z" fill="#1877F2"/></g><defs><clipPath id="a"><path fill="#fff" d="M0 0h237v46H0z"/></clipPath></defs></svg>
